data/styles/clear/style-clear/symbols/shoes-m.svg

<svg height="24" viewBox="0 0 24 24" width="24"><g fill="none" fill-rule="evenodd"><circle cx="12" cy="12" fill="#fff" opacity=".6" r="12"/><circle cx="12" cy="12" fill="#8c5f93" r="11"/><path d="m6 18h2.69558769v-2.7326471h.74335407l2.23006224 2.7326471h1.4867081l4.8438809-1.7841176s.0734062-1.3235295-1.751528-1.3235295c-3.7548672 0-4.7388822-2.7317647-4.579061-3.8205882.1598211-1.08882352.743354-5.0717647.743354-5.0717647l-6.412358 1.41176471z" fill="#fff"/></g></svg>

<svg width="24" height="24" viewBox="0 0 24 24">
  <g fill="none" fill-rule="evenodd">
    <circle cx="12" cy="12" r="12" fill="#FFF" opacity=".6"/>
    <circle cx="12" cy="12" r="11" fill="#8C5F93"/>
    <path fill="#FFF" d="M6,18 L8.69558769,18 L8.69558769,15.2673529 L9.43894176,15.2673529 L11.669004,18 L13.1557121,18 L17.999593,16.2158824 C17.999593,16.2158824 18.0729992,14.8923529 16.248065,14.8923529 C12.4931978,14.8923529 11.5091828,12.1605882 11.669004,11.0717647 C11.8288251,9.98294118 12.412358,6 12.412358,6 L6,7.41176471 L6,18 L6,18 Z"/>
  </g>
</svg>
